svgs/light/square-arrow-down-right.svg

<svg xmlns="http://www.w3.org/2000/svg" viewBox="0 0 448 512"><!-- Font Awesome Pro 6.0.0-alpha2 by @fontawesome - https://fontawesome.com License - https://fontawesome.com/license (Commercial License) --><path d="M64 480H384C419.346 480 448 451.344 448 416V96C448 60.656 419.346 32 384 32H64C28.654 32 0 60.656 0 96V416C0 451.344 28.654 480 64 480ZM32 96C32 78.355 46.355 64 64 64H384C401.645 64 416 78.355 416 96V416C416 433.645 401.645 448 384 448H64C46.355 448 32 433.645 32 416V96ZM265.102 319.727L175.953 320C167.109 320.031 159.969 327.219 160 336.031C160.031 344.875 167.188 352 176 352H176.047L304.047 351.625C312.859 351.594 320 344.438 320 335.625V208C320 199.156 312.844 192 304 192S288 199.156 288 208V297.375L155.312 164.688C152.188 161.562 148.094 160 144 160S135.812 161.562 132.688 164.688C126.438 170.938 126.438 181.063 132.688 187.312L265.102 319.727Z"/></svg>

<svg xmlns="http://www.w3.org/2000/svg" viewBox="0 0 448 512"><!--! Font Awesome Pro 6.0.0-alpha3 by @fontawesome - https://fontawesome.com License - https://fontawesome.com/license (Commercial License) --><path d="M64 480h320c35.35 0 64-28.66 64-64V96c0-35.34-28.65-64-64-64H64C28.65 32 0 60.66 0 96v320C0 451.3 28.65 480 64 480zM32 96c0-17.64 14.36-32 32-32h320c17.64 0 32 14.36 32 32v320c0 17.64-14.36 32-32 32H64c-17.64 0-32-14.36-32-32V96zM265.1 319.7L175.1 320C167.1 320 159.1 327.2 160 336C160 344.9 167.2 352 176 352l128-.375C312.9 351.6 320 344.4 320 335.6V208C320 199.2 312.8 192 304 192S288 199.2 288 208v89.38L155.3 164.7C152.2 161.6 148.1 160 144 160S135.8 161.6 132.7 164.7c-6.25 6.25-6.25 16.38 0 22.62L265.1 319.7z"/></svg>
